X:551
T:Kings Frolic
C:Jill Lawrence, 1978.  Chords: Colin Hume, 2022.
L:1/8
M:2/4
R:Reel
S:Colin Hume's website,  colinhume.com  - chords can also be printed below the stave.
%%MIDI gchord fzczfzcz
Q:1/4=112
K:G
P:A1
"G"GG2A | B2 d2 | "Em"gg2a | "/"ge dB | "G"GG2A | "Em"B2 d2 | "Am"ee2d | "D"AF ED |
P:A2
"G"GG2A | "/"B2 d2 | "Em"gg2a | "/"ge dB | "G"GG2A | "Em"B2 d2 | "Am"x2 "D7"x2 & ED2F | "G"G4 |
P:B1
"D7"AB dA | "/"Bd AB | "G"dd2e | "/"g2e2 | "Em"DE GD | "/"EG DE | "Am"GG2A | "D7"B2 A2 |
P:B2
"G"de gd | "/"egde | "Em"GA BG | "/"AB GB | "G"dd2e | "Em"d2B2 | "Am"x2 "D7"x2 & ED2F | "G"G4 |]

